packages/core/src/svgs/abyss.svg

<svg width="24" height="24" viewBox="0 0 24 24" fill="none" xmlns="http://www.w3.org/2000/svg">
<g clip-path="url(#clip0_31_5530)">
<path d="M0 0H24V24H0V0Z" fill="url(#paint0_linear_31_5530)"/>
<path d="M12.0095 9.42871C10.788 9.42871 9.85718 9.61728 9.85718 9.61728V11.5716H14.1429V9.61814C14.163 9.61814 13.2317 9.42871 12.0095 9.42871Z" fill="white"/>
<path d="M12 4.28564C8.86968 4.28564 5.14282 5.8945 5.14282 5.8945V15.6856L12 20.5714L18.8571 15.7054V5.87393C18.8768 5.87393 15.1487 4.28564 12 4.28564ZM15.8571 14.6326L14.1428 15.8841V13.2856H9.85711V15.8832L8.14282 14.6326V8.13979C8.14282 8.13979 10.4057 7.62336 12.0197 7.62336C13.6337 7.62336 15.8571 8.13979 15.8571 8.13979V14.6326Z" fill="white"/>
</g>
<defs>
<linearGradient id="paint0_linear_31_5530" x1="3.285" y1="4.14043" x2="19.8197" y2="20.7951" gradientUnits="userSpaceOnUse">
<stop stop-color="#A025F3"/>
<stop offset="1" stop-color="#4212A0"/>
</linearGradient>
<clipPath id="clip0_31_5530">
<rect width="24" height="24" fill="white"/>
</clipPath>
</defs>
</svg>

<svg xmlns="http://www.w3.org/2000/svg" width="24" height="24" fill="none" viewBox="0 0 24 24"><g clip-path="url(#a)"><path fill="url(#b)" d="M0 0h24v24H0z"/><path fill="#fff" d="M12.01 9.429c-1.222 0-2.153.188-2.153.188v1.955h4.286V9.618c.02 0-.911-.19-2.134-.19"/><path fill="#fff" d="M12 4.286c-3.13 0-6.857 1.609-6.857 1.609v9.79L12 20.572l6.857-4.866V5.874c.02 0-3.708-1.588-6.857-1.588m3.857 10.347-1.714 1.251v-2.598H9.857v2.597l-1.714-1.25V8.14s2.263-.517 3.877-.517 3.837.517 3.837.517z"/></g><defs><linearGradient id="b" x1="3.285" x2="19.82" y1="4.14" y2="20.795" gradientUnits="userSpaceOnUse"><stop stop-color="#A025F3"/><stop offset="1" stop-color="#4212A0"/></linearGradient><clipPath id="a"><path fill="#fff" d="M0 0h24v24H0z"/></clipPath></defs></svg>
